assets/Woman gesturing ok/Medium-Dark/Flat/woman_gesturing_ok_flat_medium-dark.svg

<svg width="32" height="32" viewBox="0 0 32 32" fill="none" xmlns="http://www.w3.org/2000/svg">
<path d="M24.5 15.6341C24.5 16.2069 24.374 16.7567 24.1334 17.2493C24.0532 17.4097 24.0532 17.6044 24.1334 17.7648C24.3625 18.246 24.5 18.7844 24.5 19.3571C24.5 21.3733 22.8733 23 20.8571 23H11.1429C9.12668 23 7.5 21.3733 7.5 19.3571C7.5 18.7844 7.63747 18.246 7.86658 17.7648C7.94677 17.6044 7.94677 17.4097 7.86658 17.2493C7.63747 16.7567 7.5 16.2183 7.5 15.6341C7.5 14.8684 7.72805 14.171 8.11588 13.5763L8.11848 13.5721C8.50797 12.9764 8.71417 12.2776 8.71417 11.5674V11.5559C8.71417 9.52611 10.3349 7.87373 12.3524 7.82265C12.3844 7.82184 12.4165 7.82143 12.4487 7.82143C12.6549 7.82143 12.8496 7.71833 12.9642 7.55795C13.64 6.6186 14.7512 6 15.9999 6C17.2485 6 18.3598 6.6186 19.0357 7.55795C19.1503 7.72978 19.345 7.82143 19.5512 7.82143C21.6132 7.82143 23.2857 9.49394 23.2857 11.5559V11.5674C23.2857 12.2776 23.4919 12.9764 23.8814 13.5721L23.8837 13.5756C24.0086 13.7579 24.111 13.9515 24.202 14.1563H24.196C24.3912 14.6088 24.5 15.1051 24.5 15.6341Z" fill="#2D242D"/>
<path d="M15 2.62C15 2.22 14.6884 2 14.2979 2L12.5 2.1C12.5 2.1 12.3817 2 12 2C10.8939 2 9.56061 2.96641 9 3.5L7.5 5L10 6.5C10.8678 7.07852 11.4837 6.73665 12.1881 6.3457C12.7013 6.06088 13.2614 5.75 14 5.75C15 5.75 15.2 5.55243 15.2 4.85C15.4 4.85 15.9 4.5 15.6 3.9C15.6 3.9 16.0563 3.72518 15.9 3.1C15.8463 2.88511 15.5742 2.62 15 2.62Z" fill="#966661"/>
<path d="M16.9326 2.62C16.9326 2.22 17.2443 2 17.6347 2L19.4326 2.1C19.4326 2.1 19.5509 2 19.9326 2C21.0387 2 22.372 2.96641 22.9326 3.5L24.4326 5L21.9326 6.5C21.0648 7.07852 20.4489 6.73665 19.7445 6.3457C19.2314 6.06088 18.6712 5.75 17.9326 5.75C16.9326 5.75 16.7326 5.55243 16.7326 4.85C16.5326 4.85 16.0326 4.5 16.3326 3.9C16.3326 3.9 15.8763 3.72518 16.0326 3.1C16.0863 2.88511 16.3584 2.62 16.9326 2.62Z" fill="#966661"/>
<path d="M10.9432 2.51785C10.953 2.55093 10.9878 2.56976 11.0209 2.5599C11.8224 2.28995 12.343 2.14083 12.503 2.10001C12.503 2.10001 12.4749 2.0762 12.4017 2.05182C12.3634 2.05953 12.3167 2.07018 12.2639 2.08302C12.1514 2.11032 12.0091 2.14801 11.8572 2.18974C11.5533 2.27322 11.2093 2.37336 10.9852 2.4401C10.9521 2.44996 10.9333 2.48476 10.9432 2.51785Z" fill="#764C49"/>
<path d="M14.4052 4.46251C14.5419 4.46276 14.7065 4.48695 14.8471 4.55068C15.0656 4.64967 15.203 4.7893 15.203 4.85001C15.2214 4.85001 15.2423 4.84705 15.2649 4.84122C15.2648 4.84003 15.2649 4.83544 15.265 4.83033C15.2652 4.82342 15.2654 4.81552 15.2649 4.81392C15.2084 4.60002 15.0616 4.51062 14.8987 4.43683C14.7367 4.3634 14.5523 4.3375 14.403 4.3375L12.9986 4.43767C12.9642 4.44013 12.9383 4.47003 12.9407 4.50446C12.9432 4.53889 12.9731 4.56481 13.0075 4.56235L14.4052 4.46251Z" fill="#764C49"/>
<path d="M15.3074 3.63583C15.1985 3.58097 15.0784 3.56251 15.0031 3.56251H13.0031C12.9685 3.56251 12.9406 3.53453 12.9406 3.50001C12.9406 3.46549 12.9685 3.43751 13.0031 3.43751H15.0031C15.0943 3.43751 15.2343 3.45905 15.3637 3.52419C15.4908 3.5882 15.6115 3.69664 15.6599 3.87048C15.626 3.89121 15.603 3.90001 15.603 3.90001C15.603 3.86535 15.5439 3.76399 15.3074 3.63583Z" fill="#764C49"/>
<path d="M11.9438 3.01978C11.9547 3.05252 11.9901 3.07022 12.0228 3.05931C13.5531 2.61187 14.6472 2.58001 15.003 2.62001C15.003 2.59852 15.0021 2.57755 15.0004 2.5571C14.4357 2.30002 12.4869 2.77287 11.9833 2.94072C11.9506 2.95164 11.9329 2.98703 11.9438 3.01978Z" fill="#764C49"/>
<path d="M20.9925 2.51785C20.9826 2.55093 20.9478 2.56976 20.9147 2.5599C20.1132 2.28995 19.5927 2.14083 19.4326 2.10001C19.4326 2.10001 19.4608 2.0762 19.5339 2.05182C19.5722 2.05953 19.6189 2.07018 19.6718 2.08302C19.7842 2.11032 19.9265 2.14801 20.0784 2.18974C20.3823 2.27322 20.7263 2.37336 20.9504 2.4401C20.9835 2.44996 21.0023 2.48476 20.9925 2.51785Z" fill="#764C49"/>
<path d="M17.5304 4.46251C17.3937 4.46276 17.2291 4.48695 17.0885 4.55068C16.8701 4.64967 16.7326 4.7893 16.7326 4.85001C16.7142 4.85001 16.6933 4.84705 16.6707 4.84122C16.6709 4.84003 16.6707 4.83544 16.6706 4.83033C16.6704 4.82341 16.6702 4.81552 16.6707 4.81392C16.7272 4.60002 16.8741 4.51062 17.0369 4.43683C17.1989 4.3634 17.3833 4.3375 17.5326 4.3375L18.937 4.43767C18.9715 4.44013 18.9974 4.47003 18.9949 4.50446C18.9925 4.53889 18.9626 4.56481 18.9281 4.56235L17.5304 4.46251Z" fill="#764C49"/>
<path d="M16.6282 3.63583C16.7371 3.58097 16.8572 3.56251 16.9326 3.56251H18.9326C18.9671 3.56251 18.9951 3.53453 18.9951 3.50001C18.9951 3.46549 18.9671 3.43751 18.9326 3.43751H16.9326C16.8413 3.43751 16.7013 3.45905 16.572 3.52419C16.4448 3.5882 16.3241 3.69664 16.2757 3.87048C16.3096 3.89121 16.3326 3.90001 16.3326 3.90001C16.3326 3.86535 16.3917 3.76399 16.6282 3.63583Z" fill="#764C49"/>
<path d="M19.9919 3.01978C19.9809 3.05252 19.9455 3.07022 19.9128 3.05931C18.3825 2.61187 17.2884 2.58001 16.9326 2.62001C16.9326 2.59852 16.9335 2.57755 16.9353 2.5571C17.5 2.30002 19.4488 2.77287 19.9523 2.94072C19.9851 2.95164 20.0028 2.98703 19.9919 3.01978Z" fill="#764C49"/>
<path d="M25.4703 6.26998L22.1103 8.35998L21.2303 6.92998C21.1403 6.77998 21.1803 6.58998 21.3303 6.49998L24.1603 4.73998C24.3103 4.64998 24.5003 4.68998 24.5903 4.83998L25.4703 6.26998Z" fill="#774AA6"/>
<path d="M6.54028 6.27997L9.89028 8.35997L10.7803 6.93997C10.8703 6.78997 10.8303 6.59997 10.6803 6.50997L7.85028 4.74997C7.70028 4.65997 7.51028 4.69997 7.42028 4.84997L6.54028 6.27997Z" fill="#774AA6"/>
<path d="M28.6703 9.80077L26.3103 6.0072C26.0003 5.51066 25.3403 5.35177 24.8403 5.65963L22.0003 7.39751C21.5003 7.70537 21.3403 8.3608 21.6503 8.85734L24.0103 12.6509C24.6503 13.6837 24.7003 14.9946 24.1303 16.077L20.8603 22.2639C20.7738 22.4304 20.6405 22.562 20.481 22.6478C19.1617 21.9178 17.6318 21.5 16 21.5C14.3705 21.5029 12.8426 21.9205 11.5246 22.6486C11.366 22.5629 11.2325 22.4309 11.1403 22.2639L7.8703 16.077C7.3003 15.0045 7.3503 13.6837 7.9903 12.6509L10.3503 8.85734C10.6603 8.3608 10.5003 7.70537 10.0003 7.39751L7.1603 5.65963C6.6603 5.35177 6.0003 5.50073 5.6903 6.0072L3.3303 9.80077C1.6703 12.4622 1.5603 15.8387 3.0203 18.6094L6.6303 25.4318C6.9103 25.9681 7.5 26.8942 7.5 27.5C7.5 27.5 7 28.75 7.0014 30H24.9986C24.9986 28.75 24.5 27.5 24.5 27.5C24.5 26.9042 25.1203 25.9284 25.4003 25.3921L28.9803 18.6193C30.4403 15.8387 30.3303 12.4622 28.6703 9.80077Z" fill="#8B62BF"/>
<path d="M16 24.5C14.8996 24.5 14 23.6591 14 22.6136V20.3864C14 19.3485 14.8916 18.5 16 18.5C17.1004 18.5 18 19.3409 18 20.3864V22.6136C17.992 23.6591 17.1004 24.5 16 24.5Z" fill="#8B5C56"/>
<path d="M12.5 15.3333C12.5 16.2998 11.7165 17.0833 10.75 17.0833C9.7835 17.0833 9 16.2998 9 15.3333C9 14.3668 9.7835 13.5833 10.75 13.5833C11.7165 13.5833 12.5 14.3668 12.5 15.3333Z" fill="#8B5C56"/>
<path d="M23 15.3333C23 16.2998 22.2165 17.0833 21.25 17.0833C20.2835 17.0833 19.5 16.2998 19.5 15.3333C19.5 14.3668 20.2835 13.5833 21.25 13.5833C22.2165 13.5833 23 14.3668 23 15.3333Z" fill="#8B5C56"/>
<path d="M10.5101 14.1008H10.5221L10.5111 13.8023L10.5 13.4578C10.5221 12.39 11.1197 11.9767 11.3742 11.8389C11.3908 11.8332 11.4102 11.8246 11.4296 11.816C11.4489 11.8074 11.4683 11.7987 11.4849 11.793C12.0604 11.5175 12.5252 11.0352 12.7686 10.4038L12.8571 10.1856C12.9457 9.96746 13.2223 9.93302 13.3551 10.1282C14.1298 11.3108 15.4245 12.0112 16.7968 12.0112H20.2716C20.4708 12.0112 21.4889 12.1145 21.5 13.6186L21.4889 14.1008L21.3851 16.757C21.2519 19.8938 18.8867 22 15.9997 22C13.1127 22 10.7475 19.8938 10.6143 16.757L10.5101 14.1008Z" fill="#966661"/>
<path d="M15.5841 15.0571L15.0061 16.906C14.8882 17.2863 15.1713 17.6666 15.5723 17.6666H16.4276C16.8286 17.6666 17.1118 17.2805 16.9938 16.906L16.4158 15.0571C16.2919 14.6476 15.7139 14.6476 15.5841 15.0571Z" fill="#75443E"/>
<path d="M16 18.7723C15.4481 18.7723 14.9293 18.6424 14.4932 18.4151C14.3442 18.3393 14.1842 18.5071 14.278 18.6424C14.6423 19.1945 15.277 19.5625 16 19.5625C16.723 19.5625 17.3577 19.1945 17.722 18.6424C17.8158 18.5017 17.6558 18.3393 17.5068 18.4151C17.0707 18.6424 16.5574 18.7723 16 18.7723Z" fill="#990838"/>
<path d="M13.0702 14.3C13.7102 14.3 14.2302 14.74 14.5602 15.24C14.2654 15.3307 13.9777 15.4143 13.6924 15.4972C13.2227 15.6336 12.7592 15.7683 12.2802 15.93L11.7402 15.44C11.5202 15.24 11.5302 14.88 11.7802 14.7C12.1402 14.44 12.6202 14.3 13.0702 14.3Z" fill="black"/>
<path d="M19.0203 14.3C18.3803 14.3 17.8603 14.74 17.5303 15.24C17.8285 15.3317 18.1179 15.4162 18.4053 15.5C18.8696 15.6355 19.3285 15.7694 19.8103 15.93L20.3503 15.44C20.5703 15.24 20.5603 14.88 20.3103 14.7C19.9503 14.44 19.4703 14.3 19.0203 14.3Z" fill="black"/>
<path d="M11.7302 15.61C11.9002 14.92 12.5303 14.41 13.2703 14.41C14.0402 14.41 14.6802 14.97 14.8302 15.69C14.8602 15.85 14.7302 16 14.5702 16H12.0402C11.8302 16 11.6802 15.81 11.7302 15.61Z" fill="white"/>
<path d="M20.3603 15.61C20.1903 14.92 19.5603 14.41 18.8203 14.41C18.0503 14.41 17.4003 14.97 17.2603 15.69C17.2303 15.85 17.3603 16 17.5203 16H20.0503C20.2603 16 20.4103 15.81 20.3603 15.61Z" fill="white"/>
<path d="M12.4802 15.74C12.4802 15.17 12.9402 14.72 13.5002 14.72C14.0602 14.72 14.5202 15.17 14.5202 15.74C14.5202 15.83 14.5002 15.92 14.4802 16.01H12.5202C12.4902 15.92 12.4802 15.83 12.4802 15.74Z" fill="#7D4533"/>
<path d="M19.6003 15.74C19.6003 15.17 19.1403 14.72 18.5803 14.72C18.0203 14.72 17.5703 15.17 17.5603 15.74C17.5603 15.83 17.5803 15.92 17.6003 16.01H19.5603C19.5903 15.92 19.6003 15.83 19.6003 15.74Z" fill="#7D4533"/>
<path d="M13.5003 15.15C13.8203 15.15 14.0803 15.41 14.0803 15.73C14.0803 15.83 14.0603 15.92 14.0203 16H12.9903C12.9403 15.92 12.9203 15.83 12.9203 15.73C12.9203 15.41 13.1803 15.15 13.5003 15.15Z" fill="black"/>
<path d="M18.5804 15.15C18.2604 15.15 18.0004 15.41 18.0004 15.73C18.0004 15.83 18.0304 15.92 18.0604 16H19.0904C19.1404 15.92 19.1604 15.83 19.1604 15.73C19.1604 15.41 18.9004 15.15 18.5804 15.15Z" fill="black"/>
<path d="M13.3302 15.33C13.3302 15.4294 13.2496 15.51 13.1502 15.51C13.0508 15.51 12.9702 15.4294 12.9702 15.33C12.9702 15.2306 13.0508 15.15 13.1502 15.15C13.2496 15.15 13.3302 15.2306 13.3302 15.33Z" fill="white"/>
<path d="M18.4203 15.33C18.4203 15.4294 18.3397 15.51 18.2403 15.51C18.1409 15.51 18.0603 15.4294 18.0603 15.33C18.0603 15.2306 18.1409 15.15 18.2403 15.15C18.3397 15.15 18.4203 15.2306 18.4203 15.33Z" fill="white"/>
<path d="M19.9003 13.73C19.9503 13.76 20.0003 13.77 20.0503 13.77C20.1603 13.77 20.2603 13.72 20.3103 13.61C20.4003 13.46 20.3503 13.27 20.2003 13.19C20.2003 13.19 20.1956 13.1875 20.191 13.185C20.0811 13.1261 19.1344 12.6185 18.0403 12.82C17.8703 12.85 17.7603 13.01 17.7903 13.18C17.8303 13.35 17.9803 13.46 18.1503 13.43C19.0603 13.26 19.8903 13.72 19.9003 13.73Z" fill="#372128"/>
<path d="M11.7303 13.62C11.7903 13.71 11.8903 13.77 12.0003 13.77C12.0503 13.77 12.1003 13.76 12.1403 13.74C12.1403 13.74 12.1475 13.7368 12.1589 13.7311C12.2871 13.6672 13.055 13.284 13.8903 13.44C14.0703 13.47 14.2203 13.35 14.2503 13.19C14.2803 13.02 14.1703 12.86 14.0003 12.83C12.9063 12.6285 11.9596 13.1361 11.8497 13.195C11.8451 13.1975 11.8403 13.2 11.8403 13.2C11.7003 13.29 11.6503 13.47 11.7303 13.62Z" fill="#372128"/>
</svg>

<svg xmlns="http://www.w3.org/2000/svg" width="32" height="32" fill="none"><path fill="#2D242D" d="M24.5 15.634a3.67 3.67 0 0 1-.367 1.615.582.582 0 0 0 0 .516A3.637 3.637 0 0 1 20.857 23h-9.714A3.637 3.637 0 0 1 7.5 19.357c0-.573.137-1.111.367-1.592a.582.582 0 0 0 0-.516 3.734 3.734 0 0 1 .25-3.673l.001-.004c.39-.596.596-1.294.596-2.005v-.011A3.735 3.735 0 0 1 12.45 7.82a.64.64 0 0 0 .515-.263A3.742 3.742 0 0 1 16 6c1.248 0 2.36.619 3.036 1.558a.61.61 0 0 0 .515.263 3.735 3.735 0 0 1 3.735 3.735v.011c0 .71.206 1.41.595 2.005l.003.004c.125.182.227.375.318.58h-.006c.195.453.304.95.304 1.478Z"/><path fill="#966661" d="M15 2.62c0-.4-.312-.62-.702-.62l-1.798.1S12.382 2 12 2c-1.106 0-2.44.966-3 1.5L7.5 5 10 6.5c.868.579 1.484.237 2.188-.154.513-.285 1.073-.596 1.812-.596 1 0 1.2-.198 1.2-.9.2 0 .7-.35.4-.95 0 0 .456-.175.3-.8-.054-.215-.326-.48-.9-.48Z"/><path fill="#966661" d="M16.933 2.62c0-.4.311-.62.702-.62l1.798.1s.118-.1.5-.1c1.106 0 2.439.966 3 1.5l1.5 1.5-2.5 1.5c-.868.579-1.484.237-2.189-.154-.513-.285-1.073-.596-1.811-.596-1 0-1.2-.198-1.2-.9-.2 0-.7-.35-.4-.95 0 0-.457-.175-.3-.8.053-.215.325-.48.9-.48Z"/><path fill="#764C49" d="M10.943 2.518c.01.033.045.052.078.042.801-.27 1.322-.42 1.482-.46 0 0-.028-.024-.101-.048a14.81 14.81 0 0 0-.544.138c-.305.083-.649.183-.873.25a.062.062 0 0 0-.042.078ZM14.405 4.463c.137 0 .302.024.442.088.219.099.356.238.356.299.018 0 .04-.003.062-.009V4.814c-.057-.214-.203-.303-.366-.377a1.237 1.237 0 0 0-.496-.1l-1.404.1a.063.063 0 0 0 .008.125l1.398-.1ZM15.307 3.636a.719.719 0 0 0-.304-.073h-2a.062.062 0 1 1 0-.125h2c.091 0 .231.021.36.086a.55.55 0 0 1 .297.346c-.034.021-.057.03-.057.03 0-.035-.06-.136-.296-.264ZM11.944 3.02c.01.033.046.05.079.04 1.53-.448 2.624-.48 2.98-.44 0-.021 0-.042-.003-.063-.564-.257-2.513.216-3.017.384a.063.063 0 0 0-.04.079ZM20.992 2.518a.063.063 0 0 1-.077.042c-.802-.27-1.322-.42-1.482-.46 0 0 .028-.024.1-.048.04.008.086.018.139.031.112.027.255.065.406.107.304.083.648.183.872.25.034.01.052.045.043.078ZM17.53 4.463c-.136 0-.3.024-.442.088-.218.099-.355.238-.355.299a.252.252 0 0 1-.062-.009V4.814c.056-.214.203-.303.366-.377.162-.074.346-.1.496-.1l1.404.1a.062.062 0 1 1-.009.125l-1.398-.1ZM16.628 3.636a.719.719 0 0 1 .305-.073h2a.063.063 0 0 0 0-.125h-2a.843.843 0 0 0-.361.086.55.55 0 0 0-.296.346c.034.021.057.03.057.03 0-.035.059-.136.295-.264ZM19.992 3.02a.063.063 0 0 1-.08.04c-1.53-.448-2.624-.48-2.98-.44l.003-.063c.565-.257 2.514.216 3.017.384.033.01.05.046.04.079Z"/><path fill="#774AA6" d="m25.47 6.27-3.36 2.09-.88-1.43a.309.309 0 0 1 .1-.43l2.83-1.76c.15-.09.34-.05.43.1l.88 1.43ZM6.54 6.28l3.35 2.08.89-1.42c.09-.15.05-.34-.1-.43L7.85 4.75a.309.309 0 0 0-.43.1l-.88 1.43Z"/><path fill="#8B62BF" d="m28.67 9.8-2.36-3.793a1.075 1.075 0 0 0-1.47-.347L22 7.398c-.5.307-.66.963-.35 1.46l2.36 3.793c.64 1.033.69 2.344.12 3.426l-3.27 6.187a.914.914 0 0 1-.379.384A9.233 9.233 0 0 0 16 21.5a9.268 9.268 0 0 0-4.475 1.149.963.963 0 0 1-.385-.385l-3.27-6.187a3.463 3.463 0 0 1 .12-3.426l2.36-3.794a1.06 1.06 0 0 0-.35-1.46L7.16 5.66a1.066 1.066 0 0 0-1.47.347L3.33 9.801a8.88 8.88 0 0 0-.31 8.808l3.61 6.823c.28.536.87 1.462.87 2.068 0 0-.5 1.25-.499 2.5H25c0-1.25-.499-2.5-.499-2.5 0-.596.62-1.572.9-2.108l3.58-6.773c1.46-2.78 1.35-6.157-.31-8.818Z"/><path fill="#8B5C56" d="M16 24.5c-1.1 0-2-.84-2-1.886v-2.228c0-1.037.892-1.886 2-1.886 1.1 0 2 .84 2 1.886v2.228c-.008 1.045-.9 1.886-2 1.886ZM12.5 15.333a1.75 1.75 0 1 1-3.5 0 1.75 1.75 0 0 1 3.5 0ZM23 15.333a1.75 1.75 0 1 1-3.5 0 1.75 1.75 0 0 1 3.5 0Z"/><path fill="#966661" d="M10.51 14.1h.012l-.01-.298-.012-.344c.022-1.068.62-1.481.874-1.62.017-.005.036-.013.056-.022a2.547 2.547 0 0 0 1.339-1.412l.088-.218c.089-.219.365-.253.498-.058a4.122 4.122 0 0 0 3.442 1.883h3.475c.199 0 1.217.104 1.228 1.608l-.011.482-.104 2.656C21.252 19.894 18.887 22 16 22c-2.887 0-5.252-2.106-5.386-5.243l-.104-2.656Z"/><path fill="#75443E" d="m15.584 15.057-.578 1.849c-.118.38.165.76.566.76h.856a.588.588 0 0 0 .566-.76l-.578-1.849c-.124-.41-.702-.41-.832 0Z"/><path fill="#990838" d="M16 18.772c-.552 0-1.07-.13-1.507-.357-.149-.076-.309.092-.215.227.364.553.999.92 1.722.92a2.06 2.06 0 0 0 1.722-.92c.094-.14-.066-.303-.215-.227-.436.227-.95.357-1.507.357Z"/><path fill="#000" d="M13.07 14.3c.64 0 1.16.44 1.49.94-.295.09-.582.174-.868.257-.47.137-.933.271-1.412.433l-.54-.49c-.22-.2-.21-.56.04-.74.36-.26.84-.4 1.29-.4ZM19.02 14.3c-.64 0-1.16.44-1.49.94.298.092.588.176.875.26.465.136.923.27 1.405.43l.54-.49c.22-.2.21-.56-.04-.74-.36-.26-.84-.4-1.29-.4Z"/><path fill="#fff" d="M11.73 15.61c.17-.69.8-1.2 1.54-1.2.77 0 1.41.56 1.56 1.28.03.16-.1.31-.26.31h-2.53c-.21 0-.36-.19-.31-.39ZM20.36 15.61c-.17-.69-.8-1.2-1.54-1.2-.77 0-1.42.56-1.56 1.28-.03.16.1.31.26.31h2.53c.21 0 .36-.19.31-.39Z"/><path fill="#7D4533" d="M12.48 15.74c0-.57.46-1.02 1.02-1.02s1.02.45 1.02 1.02c0 .09-.02.18-.04.27h-1.96a.842.842 0 0 1-.04-.27ZM19.6 15.74c0-.57-.46-1.02-1.02-1.02s-1.01.45-1.02 1.02c0 .09.02.18.04.27h1.96c.03-.09.04-.18.04-.27Z"/><path fill="#000" d="M13.5 15.15c.32 0 .58.26.58.58 0 .1-.02.19-.06.27h-1.03a.495.495 0 0 1-.07-.27c0-.32.26-.58.58-.58ZM18.58 15.15a.58.58 0 0 0-.58.58c0 .1.03.19.06.27h1.03c.05-.08.07-.17.07-.27a.58.58 0 0 0-.58-.58Z"/><path fill="#fff" d="M13.33 15.33a.18.18 0 1 1-.36 0 .18.18 0 0 1 .36 0ZM18.42 15.33a.18.18 0 1 1-.36 0 .18.18 0 0 1 .36 0Z"/><path fill="#372128" d="M19.9 13.73c.05.03.1.04.15.04.11 0 .21-.05.26-.16.09-.15.04-.34-.11-.42l-.009-.005c-.11-.059-1.057-.567-2.15-.365-.17.03-.28.19-.25.36.04.17.19.28.36.25.91-.17 1.74.29 1.75.3ZM11.73 13.62a.328.328 0 0 0 .41.12l.019-.009c.128-.064.896-.447 1.731-.291a.31.31 0 0 0 .11-.61c-1.094-.201-2.04.306-2.15.365l-.01.005c-.14.09-.19.27-.11.42Z"/></svg>
